X: 0761
M: 4/4
L: 1/8
K: D
g | Tf2d>f g>ef<d | edf>d g<e=c>e | f2d>f g<ef<d | e/e/e e/e/e fdd ||
g | f2d>f g<ef<d | e>df<d g=ceg | f<ae<f d>ef<d | A<F A>g fee |]

